X:1
T:Title
%%score ( 1 2 ) { 3 | 4 }
L:1/8
Q:1/4=97
M:6/8
K:C
V:1 treble nm="Grand Piano, Soprano"
V:2 treble 
V:3 treble nm="Choir Pad, Englewood, 86.86.88.86"
V:4 bass 
V:1
 [Ac][^GB][Ac] [Ge]2 [Gd] | [Ac]2 [G_B] [FA]3 | [FA][F^G][FA] [Ac]2 [=G_B] | [EG]6 | %4
w: By~Benjamin~Carl~Unseld,~1893 * * * *||||
 [EG][_E^F][=EG] [=FA]2 G | GA[FB] [Ec]3 | [^Fc][FB][Fc] [Ge]2 [=Fd] | [Ec]6 | %8
w: ||||
 [Ac][G_Bc][FAc] cc[EGc] | cc[EGc] ccc | [Ac][G_Bc][FAc] cc[EGc] | cc[Fc] ccc | %12
w: ||||
 [Ec][Ec][Ec] [FB]3 | [G_B][GB][GB] [FA]3 | [FG][FA][F_B] [EA]2 [EG] | F6- | F3 z3 |] %17
w: |||||
V:2
 x6 | x6 | x6 | x6 | x6 | .F3 z3 | x6 | x6 | z3 .[EG]3 | .[FA]3 F3 | z3 .[EG]3 | .[FA]3 E3 | x6 | %13
 x6 | x6 | x6 | x6 |] %17
V:3
 CDC B,2 B, | C2 C C3 | CB,C D2 D | C6 | CCC C2 C | B,CD C3 | DDD CA,B, | C6 | CCC C2 C | %9
 C2 _B, A,3 | CCC C2 C | C2[K:bass] A, G,3 | G,G,G, G,3 | CCC C3 | DC[K:bass]D C2 _B, | A,6- | %16
 A,3 z3 |] %17
V:4
 F,F,F, F,2 F, | F,2 E, F,3 | F,F,F, B,,2 B,, | C,6 | C,C,C, F,2 E, | D,2 G,, A,,3 | %6
 A,A,A, G,2 G, | C,6 | F,F,F, C,2 C, | F,2 F, F,3 | F,F,F, C,2 C, | F,2 F, C,3 | C,C,C, D,3 | %13
 E,E,E, F,3 | _B,,A,,G,, C,2 C, | F,6- | F,3 z3 |] %17

